X:188
T:Suky bids me
M:C|
L:1/8
B:Thompson's Compleat Collection of 200 Favourite Country Dances, vol. 1 (London, 1757)
Z:Transcribed and edited by Flynn Titford-Mock, 2007
Z:abc's:AK/Fiddler's Companion
K:G
G2 DE G2e2|dBAG AFED|G2 DE G2e|dBcA G4::d2 Bc d2g2|fafd ege^c|
d2 Bc d2g2|faf^c d4|dgfe dcBA|B2 BG AFED|G2 DE G2e2|dBcA G4:|

